; generated by PrusaSlicer 2.3.3+win64 on 2021-10-27 at 00:17:30 UTC


;
;

;
;
; 

; external perimeters extrusion width = 0.40mm
; perimeters extrusion width = 0.40mm
; infill extrusion width = 0.40mm
; solid infill extrusion width = 0.40mm
; top infill extrusion width = 0.40mm
; support material extrusion width = 0.40mm
; first layer extrusion width = 0.60mm

M73 P0 R168
M107
;TYPE:Custom
M104 S240       ; Heat up nozzle
M140 S80   ; Heat up bed
G28                                   ; Home all axis
M109 S240       ; Wait nozzle heating up
M190 S80   ; Wait bed heating up
G21 ; set units to millimeters
G90 ; use absolute coordinates
M83 ; use relative distances for extrusion
; Filament gcode
;LAYER_CHANGE
;Z:0.3
;HEIGHT:0.3
G1 Z0.300 F7800.000
G1 E-1.00000 F1800.000
G1 X102.428 Y58.894 F7800.000
G1 E1.00000 F2400.000
;TYPE:Skirt
;WIDTH:0.6
G1 F1200.000
G1 X103.254 Y57.724 E0.09569
G1 X104.313 Y56.759 E0.09569
G1 X105.555 Y56.045 E0.09569
G1 X110.591 Y54.309 E0.35592
G1 X111.407 Y54.094 E0.05638
G1 X112.511 Y53.972 E0.07415
G1 X116.125 Y53.971 E0.24144
G1 X117.250 Y54.068 E0.07542
G1 X118.347 Y54.357 E0.07584
G1 X169.537 Y73.089 E3.64149
G1 X170.624 Y73.636 E0.08134
G1 X171.593 Y74.373 E0.08134
G1 X172.410 Y75.276 E0.08134
G1 X173.050 Y76.319 E0.08176
G1 X173.544 Y77.677 E0.09653
G1 X173.730 Y79.110 E0.09653
G1 X173.729 Y111.193 E2.14332
G1 X171.169 Y145.310 E2.28557
G1 X170.459 Y151.888 E0.44205
G1 X170.099 Y153.327 E0.09906
G1 X169.553 Y154.450 E0.08345
G1 X168.810 Y155.447 E0.08303
G1 X167.888 Y156.290 E0.08345
G1 X166.830 Y156.941 E0.08303
G1 X165.317 Y157.470 E0.10707
G1 X163.715 Y157.619 E0.10749
G1 X155.741 Y157.375 E0.53299
G1 X92.724 Y154.747 E4.21348
G1 X91.876 Y154.629 E0.05723
G1 X91.050 Y154.402 E0.05723
G1 X90.254 Y154.067 E0.05765
G1 X89.515 Y153.635 E0.05723
G1 X88.837 Y153.111 E0.05723
G1 X88.233 Y152.504 E0.05723
G1 X87.712 Y151.823 E0.05723
G1 X87.281 Y151.076 E0.05765
G1 X86.825 Y149.859 E0.08683
G1 X83.977 Y138.906 E0.75601
G1 X83.824 Y138.102 E0.05469
G1 X83.776 Y128.627 E0.63299
G1 X83.857 Y127.047 E0.10567
G1 X84.069 Y125.566 E0.09994
G1 X84.481 Y123.830 E0.11925
G1 X101.873 Y60.214 E4.40582
G1 X102.404 Y58.949 E0.09168
G1 X102.896 Y59.155 F7800.000
G1 F1200.000
G1 X103.666 Y58.066 E0.08908
G1 X104.653 Y57.174 E0.08888
G1 X105.816 Y56.516 E0.08929
G1 X110.762 Y54.817 E0.34937
G1 X111.521 Y54.617 E0.05242
G1 X112.537 Y54.507 E0.06824
G1 X116.125 Y54.507 E0.23970
G1 X117.160 Y54.596 E0.06946
G1 X118.172 Y54.863 E0.06986
G1 X169.330 Y73.583 E3.63928
G1 X170.335 Y74.087 E0.07513
G1 X171.226 Y74.763 E0.07472
G1 X171.977 Y75.592 E0.07472
G1 X172.564 Y76.544 E0.07472
G1 X173.022 Y77.800 E0.08929
G1 X173.194 Y79.131 E0.08969
G1 X173.179 Y111.465 E2.16012
G1 X170.634 Y145.287 E2.26586
G1 X169.918 Y151.890 E0.44371
G1 X169.534 Y153.303 E0.09777
G1 X168.823 Y154.582 E0.09777
G1 X167.827 Y155.654 E0.09777
G1 X166.603 Y156.456 E0.09777
G1 X165.205 Y156.946 E0.09898
G1 X163.725 Y157.083 E0.09924
G1 X155.760 Y156.840 E0.53240
G1 X92.780 Y154.214 E4.21105
G1 X91.996 Y154.106 E0.05283
G1 X91.233 Y153.898 E0.05283
G1 X90.504 Y153.593 E0.05283
G1 X89.825 Y153.199 E0.05242
G1 X89.203 Y152.720 E0.05242
G1 X88.644 Y152.161 E0.05283
G1 X88.163 Y151.534 E0.05283
G1 X87.767 Y150.849 E0.05283
G1 X87.341 Y149.717 E0.08079
G1 X84.355 Y138.032 E0.80574
G1 X84.312 Y128.639 E0.62752
G1 X84.391 Y127.098 E0.10303
G1 X84.599 Y125.642 E0.09827
G1 X84.997 Y123.971 E0.11476
G1 X102.381 Y60.385 E4.40381
G1 X102.873 Y59.210 E0.08507
G1 X103.364 Y59.415 F7800.000
G1 F1200.000
G1 X104.081 Y58.406 E0.08269
G1 X105.002 Y57.583 E0.08254
G1 X106.078 Y56.987 E0.08215
G1 X111.630 Y55.142 E0.39083
G1 X112.559 Y55.042 E0.06244
G1 X116.124 Y55.042 E0.23819
G1 X117.073 Y55.125 E0.06361
G1 X117.993 Y55.368 E0.06361
G1 X169.130 Y74.080 E3.63770
G1 X170.039 Y74.533 E0.06786
G1 X170.854 Y75.149 E0.06825
G1 X171.542 Y75.904 E0.06825
G1 X172.080 Y76.772 E0.06825
G1 X172.502 Y77.927 E0.08215
G1 X172.659 Y79.147 E0.08215
G1 X172.646 Y111.410 E2.15536
G1 X170.100 Y145.246 E2.26677
G1 X169.392 Y151.788 E0.43963
G1 X169.045 Y153.082 E0.08948
G1 X168.402 Y154.250 E0.08910
G1 X167.498 Y155.231 E0.08910
G1 X166.380 Y155.969 E0.08948
G1 X165.265 Y156.382 E0.07945
G1 X164.087 Y156.547 E0.07945
G1 X155.837 Y156.307 E0.55140
G1 X92.833 Y153.680 E4.21264
G1 X91.424 Y153.397 E0.09603
G1 X90.135 Y152.761 E0.09603
G1 X89.057 Y151.819 E0.09565
G1 X88.254 Y150.626 E0.09603
G1 X87.859 Y149.579 E0.07482
G1 X84.886 Y137.966 E0.80081
G1 X84.847 Y128.650 E0.62237
G1 X84.924 Y127.149 E0.10040
G1 X85.129 Y125.724 E0.09613
G1 X85.514 Y124.112 E0.11073
G1 X102.892 Y60.548 E4.40230
G1 X103.341 Y59.471 E0.07798
; printing object Crab6_1_with_Chain_Holder.stl id:0 copy 0
G1 E-1.00000 F1800.000
G1 X101.779 Y105.301 F7800.000
G1 E1.00000 F2400.000
;TYPE:Support material
G1 F1200.000
G1 X101.779 Y90.668 E0.97760
G1 X102.850 Y90.668 E0.07156
G1 X102.850 Y105.060 E0.96150
G1 X103.921 Y105.060 E0.07156
G1 X103.921 Y90.668 E0.96150
G1 X104.578 Y90.668 E0.04389
G1 X104.578 Y79.239 E0.76347
G1 X104.992 Y79.239 E0.02767
G1 X104.992 Y104.168 E1.66537
M73 P0 R167
G1 X106.063 Y104.168 E0.07156
G1 X106.063 Y79.239 E1.66539
G1 X107.135 Y79.239 E0.07156
G1 X107.135 Y104.169 E1.66542
G1 X108.206 Y104.169 E0.07156
G1 X108.206 Y62.097 E2.81065
G1 X109.277 Y62.097 E0.07156
G1 X109.277 Y104.170 E2.81068
G1 X110.348 Y104.170 E0.07156
G1 X110.348 Y62.097 E2.81071
G1 X111.420 Y62.097 E0.07156
G1 X111.420 Y102.203 E2.67932
G1 X112.491 Y102.203 E0.07156
G1 X112.491 Y63.044 E2.61602
G1 X113.562 Y63.045 E0.07156
G1 X113.562 Y99.346 E2.42512
G1 X113.641 Y99.346 E0.00524
G1 X113.643 Y93.433 E0.39501
G1 X113.917 Y93.159 E0.02589
G1 X114.633 Y93.159 E0.04787
G1 X114.633 Y74.005 E1.27963
G1 X115.705 Y74.005 E0.07156
G1 X115.705 Y93.160 E1.27960
G1 X116.304 Y93.160 E0.04006
G1 X116.578 Y93.434 E0.02589
G1 X116.576 Y99.346 E0.39497
G1 X116.776 Y99.346 E0.01334
G1 X116.776 Y69.447 E1.99742
G1 X117.847 Y68.377 E0.10116
G1 X117.847 Y99.346 E2.06891
G1 X118.918 Y99.346 E0.07156
G1 X118.918 Y67.307 E2.14041
G1 X118.971 Y67.254 E0.00493
G1 X118.971 Y73.525 E0.41892
G1 X119.990 Y73.525 E0.06808
G1 X119.990 Y99.346 E1.72497
G1 X121.061 Y99.346 E0.07156
G1 X121.061 Y73.525 E1.72497
G1 X121.828 Y73.525 E0.05123
G1 X121.828 Y76.382 E0.19087
G1 X122.132 Y76.382 E0.02034
G1 X122.132 Y102.203 E1.72497
G1 X123.203 Y102.203 E0.07156
G1 X123.203 Y76.382 E1.72497
G1 X124.275 Y76.382 E0.07156
G1 X124.275 Y102.203 E1.72497
G1 X124.578 Y102.203 E0.02024
G1 X124.578 Y104.175 E0.13173
G1 X125.346 Y104.175 E0.05132
G1 X125.346 Y76.382 E1.85673
G1 X126.417 Y76.382 E0.07156
G1 X126.417 Y104.176 E1.85675
G1 X127.488 Y104.176 E0.07156
G1 X127.488 Y76.382 E1.85678
G1 X128.559 Y76.382 E0.07156
G1 X128.559 Y104.177 E1.85680
G1 X129.631 Y104.177 E0.07156
G1 X129.631 Y76.382 E1.85683
G1 X130.702 Y76.382 E0.07156
G1 X130.702 Y87.918 E0.77063
G1 X131.773 Y87.918 E0.07156
G1 X131.773 Y76.382 E0.77063
G1 X132.844 Y76.382 E0.07156
G1 X132.844 Y87.918 E0.77063
G1 X133.916 Y87.918 E0.07156
G1 X133.916 Y76.382 E0.77063
G1 X134.987 Y76.382 E0.07156
G1 X134.987 Y87.918 E0.77063
G1 X136.058 Y87.918 E0.07156
G1 X136.058 Y76.382 E0.77063
G1 X137.129 Y76.382 E0.07156
G1 X137.129 Y87.918 E0.77063
G1 X138.201 Y87.918 E0.07156
G1 X138.201 Y76.382 E0.77063
G1 X139.272 Y76.382 E0.07156
G1 X139.272 Y87.918 E0.77063
G1 X140.343 Y87.918 E0.07156
G1 X140.343 Y76.382 E0.77063
G1 X141.414 Y76.382 E0.07156
G1 X141.414 Y87.918 E0.77063
G1 X141.720 Y87.918 E0.02042
G1 X141.720 Y90.775 E0.19087
G1 X142.486 Y90.775 E0.05114
G1 X142.486 Y76.382 E0.96150
G1 X143.557 Y76.382 E0.07156
G1 X143.557 Y90.775 E0.96150
M73 P1 R167
G1 X144.628 Y90.775 E0.07156
G1 X144.628 Y76.382 E0.96150
G1 X145.699 Y76.382 E0.07156
G1 X145.699 Y90.775 E0.96150
G1 X146.771 Y90.775 E0.07156
G1 X146.771 Y76.382 E0.96150
G1 X147.842 Y76.382 E0.07156
G1 X147.842 Y90.775 E0.96150
G1 X148.913 Y90.775 E0.07156
G1 X148.913 Y76.382 E0.96150
G1 X149.984 Y76.382 E0.07156
G1 X149.984 Y90.775 E0.96150
G1 X151.055 Y90.775 E0.07156
G1 X151.055 Y79.239 E0.77063
G1 X152.127 Y79.239 E0.07156
G1 X152.127 Y90.775 E0.77063
G1 X153.198 Y90.775 E0.07156
G1 X153.198 Y79.239 E0.77063
G1 X154.269 Y79.239 E0.07156
G1 X154.269 Y90.775 E0.77063
G1 X155.340 Y90.775 E0.07156
G1 X155.340 Y79.239 E0.77063
G1 X156.412 Y79.239 E0.07156
G1 X156.412 Y110.774 E2.10671
G1 X157.483 Y110.774 E0.07156
G1 X157.483 Y79.239 E2.10671
G1 X158.554 Y79.239 E0.07156
G1 X158.554 Y110.774 E2.10671
G1 X159.625 Y110.774 E0.07156
G1 X159.625 Y79.239 E2.10671
M73 P1 R166
G1 X160.697 Y79.239 E0.07156
G1 X160.697 Y110.774 E2.10671
G1 X161.768 Y110.774 E0.07156
G1 X161.768 Y79.239 E2.10671
G1 X162.839 Y79.239 E0.07156
G1 X162.839 Y110.774 E2.10671
G1 X163.910 Y110.774 E0.07156
G1 X163.910 Y79.239 E2.10671
G1 X164.982 Y79.239 E0.07156
G1 X164.982 Y110.774 E2.10671
G1 X166.053 Y110.774 E0.07156
G1 X166.053 Y79.239 E2.10671
G1 X167.124 Y79.239 E0.07156
G1 X167.124 Y111.015 E2.12281
G1 X155.340 Y111.015 F7800.000
G1 F1200.000
G1 X155.340 Y99.239 E0.78673
G1 X154.269 Y99.239 E0.07156
G1 X154.269 Y110.774 E0.77063
G1 X153.198 Y110.774 E0.07156
G1 X153.198 Y99.239 E0.77063
G1 X152.127 Y99.239 E0.07156
G1 X152.127 Y110.774 E0.77063
G1 X151.055 Y110.774 E0.07156
G1 X151.055 Y99.239 E0.77063
G1 X149.984 Y99.239 E0.07156
G1 X149.984 Y116.491 E1.15254
G1 X148.913 Y115.426 E0.10090
G1 X148.913 Y99.239 E1.08141
G1 X147.842 Y99.239 E0.07156
G1 X147.842 Y114.362 E1.01028
G1 X146.825 Y113.351 E0.09578
G1 X146.771 Y113.374 E0.00393
G1 X146.771 Y99.239 E0.94427
G1 X145.699 Y99.239 E0.07156
G1 X145.699 Y130.774 E2.10671
G1 X144.628 Y130.774 E0.07156
G1 X144.628 Y99.239 E2.10671
G1 X143.557 Y99.239 E0.07156
G1 X143.557 Y130.774 E2.10671
G1 X142.486 Y130.774 E0.07156
G1 X142.486 Y99.239 E2.10671
G1 X141.414 Y99.239 E0.07156
G1 X141.414 Y127.917 E1.91584
G1 X140.343 Y127.917 E0.07156
G1 X140.343 Y99.239 E1.91584
G1 X139.272 Y99.239 E0.07156
G1 X139.272 Y127.917 E1.91584
G1 X138.863 Y127.917 E0.02732
G1 X138.863 Y125.060 E0.19087
G1 X138.201 Y125.060 E0.04425
G1 X138.201 Y99.239 E1.72497
G1 X137.129 Y99.239 E0.07156
G1 X137.129 Y125.060 E1.72497
G1 X136.058 Y125.060 E0.07156
G1 X136.058 Y93.525 E2.10671
G1 X134.987 Y93.525 E0.07156
G1 X134.987 Y125.060 E2.10671
G1 X133.916 Y125.060 E0.07156
G1 X133.916 Y93.525 E2.10671
G1 X133.256 Y93.525 E0.04407
G1 X133.256 Y90.668 E0.19087
G1 X132.844 Y90.668 E0.02749
G1 X132.844 Y110.274 E1.30984
G1 X131.773 Y110.274 E0.07156
G1 X131.773 Y90.668 E1.30983
G1 X130.702 Y90.668 E0.07156
G1 X130.702 Y104.177 E0.90251
G1 X130.997 Y104.177 E0.01968
G1 X131.271 Y104.452 E0.02590
G1 X131.269 Y106.841 E0.15963
G1 X130.995 Y107.115 E0.02589
G1 X130.702 Y107.115 E0.01957
G1 X130.702 Y107.648 E0.03559
G1 E-1.00000 F1800.000
G1 X133.023 Y113.739 F7800.000
G1 E1.00000 F2400.000
;TYPE:Support material interface
;WIDTH:0.4
G1 F1200.000
G1 X133.023 Y110.721 E0.12633
G1 X132.666 Y110.721 E0.01495
G1 X132.666 Y113.578 E0.11960
G1 X132.309 Y113.578 E0.01495
G1 X132.309 Y110.721 E0.11960
G1 X131.952 Y110.721 E0.01495
G1 X131.952 Y113.578 E0.11960
G1 X131.595 Y113.578 E0.01495
G1 X131.595 Y110.721 E0.11960
G1 X131.275 Y110.721 E0.01336
G1 X131.275 Y111.397 E0.02829
G1 X131.238 Y111.412 E0.00170
G1 X131.238 Y113.578 E0.09066
G1 X130.880 Y113.578 E0.01495
G1 X130.880 Y111.560 E0.08445
G1 X130.809 Y111.590 E0.00324
G1 X130.523 Y111.307 E0.01684
G1 X130.523 Y113.739 E0.10180
G1 E-1.00000 F1800.000
G1 X127.488 Y116.730 F7800.000
G1 E1.00000 F2400.000
;TYPE:Support material
;WIDTH:0.6
G1 F1200.000
G1 X127.495 Y108.421 E0.55503
G1 X128.559 Y109.480 E0.10028
G1 X128.559 Y116.489 E0.46822
G1 X129.631 Y116.489 E0.07156
G1 X129.631 Y110.545 E0.39706
G1 X129.899 Y110.812 E0.02526
G1 X129.899 Y114.024 E0.21462
G1 X130.702 Y114.024 E0.05365
G1 X130.702 Y117.317 E0.21999
G1 X130.989 Y117.317 E0.01915
G1 X131.262 Y117.592 E0.02589
G1 X131.261 Y119.981 E0.15963
G1 X130.987 Y120.255 E0.02589
G1 X130.702 Y120.255 E0.01904
G1 X130.702 Y125.060 E0.32099
G1 X131.773 Y125.060 E0.07156
G1 X131.773 Y114.024 E0.73723
G1 X132.844 Y114.024 E0.07156
G1 X132.844 Y125.301 E0.75333
G1 E-1.00000 F1800.000
G1 X108.206 Y123.550 F7800.000
G1 E1.00000 F2400.000
G1 F1200.000
G1 X108.206 Y123.247 E0.02024
G1 X107.135 Y123.247 E0.07156
G1 X107.135 Y123.309 E0.00412
G1 X106.063 Y123.308 E0.07156
G1 X106.063 Y123.247 E0.00411
G1 X104.992 Y123.247 E0.07156
G1 X104.992 Y123.308 E0.00409
G1 X103.921 Y123.308 E0.07156
G1 X103.921 Y123.247 E0.00407
G1 X102.850 Y123.246 E0.07156
G1 X102.850 Y123.548 E0.02016
G1 E-1.00000 F1800.000
G1 X98.565 Y124.166 F7800.000
G1 E1.00000 F2400.000
G1 F1200.000
G1 X98.565 Y123.601 E0.03772
G1 X98.025 Y123.738 E0.03720
G1 X97.494 Y123.927 E0.03767
G1 X97.494 Y124.321 E0.02634
G1 X96.579 Y124.752 E0.06756
G1 X96.422 Y124.847 E0.01224
G1 X96.422 Y124.370 E0.03189
G1 X95.938 Y124.599 E0.03581
G1 X95.351 Y124.951 E0.04570
G1 X95.351 Y125.511 E0.03745
G1 X94.506 Y126.137 E0.07023
G1 X94.280 Y126.346 E0.02060
G1 X94.280 Y125.691 E0.04376
G1 X94.058 Y125.856 E0.01842
G1 X93.209 Y126.630 E0.07681
G1 X93.209 Y127.752 E0.07494
G1 E-1.00000 F1800.000
G1 X93.209 Y131.595 F7800.000
G1 E1.00000 F2400.000
G1 F1200.000
G1 X93.209 Y137.203 E0.37459
G1 X93.497 Y138.017 E0.05769
G1 X93.853 Y138.771 E0.05571
G1 X94.280 Y139.482 E0.05540
G1 X94.280 Y130.037 E0.63094
G1 X94.783 Y129.355 E0.05663
G1 X95.351 Y128.734 E0.05625
G1 X95.351 Y140.787 E0.80520
G1 X95.960 Y141.339 E0.05492
G1 X96.422 Y141.682 E0.03845
G1 X96.422 Y127.837 E0.92491
G1 X96.637 Y127.678 E0.01783
G1 X97.353 Y127.248 E0.05581
G1 X97.494 Y127.182 E0.01038
G1 X97.494 Y147.916 E1.38519
G1 X98.565 Y147.916 E0.07156
G1 X98.565 Y126.730 E1.41540
G1 X98.896 Y126.612 E0.02351
G1 X99.636 Y126.425 E0.05096
G1 X99.636 Y147.916 E1.43575
G1 X100.707 Y147.916 E0.07156
G1 X100.707 Y126.278 E1.44557
G1 X101.779 Y126.246 E0.07160
G1 X101.779 Y147.916 E1.44768
G1 X101.828 Y147.916 E0.00331
G1 X101.828 Y133.631 E0.95434
G1 X102.850 Y133.631 E0.06825
G1 X102.850 Y126.246 E0.49333
G1 X103.921 Y126.247 E0.07156
G1 X103.921 Y133.631 E0.49333
G1 X104.992 Y133.631 E0.07156
G1 X104.992 Y126.247 E0.49332
G1 X106.063 Y126.247 E0.07156
G1 X106.063 Y133.631 E0.49331
G1 X107.135 Y133.631 E0.07156
G1 X107.135 Y126.247 E0.49330
G1 X108.206 Y126.247 E0.07156
G1 X108.206 Y130.774 E0.30243
G1 X109.277 Y130.774 E0.07156
G1 X109.277 Y126.247 E0.30242
G1 X109.443 Y126.247 E0.01110
G1 X109.615 Y126.177 E0.01238
G1 X110.348 Y125.448 E0.06908
G1 X110.348 Y131.015 E0.37192
G1 E-1.00000 F1800.000
G1 X96.422 Y148.157 F7800.000
G1 E1.00000 F2400.000
G1 F1200.000
G1 X96.422 Y143.742 E0.29495
G1 X95.351 Y143.742 E0.07156
G1 X95.351 Y147.916 E0.27887
M73 P1 R165
G1 X94.280 Y147.916 E0.07156
G1 X94.280 Y143.742 E0.27890
G1 X93.209 Y143.741 E0.07156
G1 X93.209 Y148.157 E0.29503
G1 E-1.00000 F1800.000
G1 X163.910 Y151.015 F7800.000
G1 E1.00000 F2400.000
G1 F1200.000
G1 X163.910 Y148.138 E0.19218
G1 X163.350 Y149.738 E0.11325
G1 X163.107 Y149.911 E0.01992
G1 X162.839 Y149.910 E0.01791
G1 X162.839 Y150.774 E0.05766
G1 X161.768 Y150.774 E0.07156
G1 X161.768 Y149.910 E0.05768
G1 X161.416 Y149.910 E0.02352
G1 X161.142 Y149.636 E0.02589
G1 X161.142 Y147.616 E0.13492
G1 X161.185 Y147.573 E0.00405
G1 X161.187 Y142.283 E0.35344
G1 X161.504 Y139.340 E0.19772
G1 X161.768 Y138.007 E0.09082
G1 X161.768 Y132.364 E0.37698
G1 X161.474 Y131.523 E0.05951
G1 X161.118 Y130.767 E0.05584
G1 X160.697 Y130.065 E0.05469
G1 X160.697 Y150.774 E1.38347
G1 X159.625 Y150.774 E0.07156
G1 X159.625 Y128.758 E1.47077
G1 X159.010 Y128.199 E0.05554
G1 X158.554 Y127.860 E0.03796
G1 X158.554 Y150.774 E1.53076
G1 X157.483 Y150.774 E0.07156
G1 X157.483 Y127.204 E1.57460
G1 X156.868 Y126.913 E0.04545
G1 X156.412 Y126.751 E0.03234
G1 X156.412 Y150.774 E1.60486
G1 X156.005 Y150.774 E0.02714
G1 X156.005 Y136.488 E0.95434
G1 X155.340 Y136.488 E0.04443
G1 X155.340 Y126.445 E0.67094
G1 X154.445 Y126.306 E0.06051
G1 X154.269 Y126.297 E0.01179
G1 X154.269 Y136.488 E0.68080
G1 X153.198 Y136.488 E0.07156
G1 X153.198 Y126.265 E0.68296
G1 X152.127 Y126.265 E0.07156
G1 X152.127 Y133.631 E0.49212
