; generated by PrusaSlicer 2.3.3+win64 on 2021-10-25 at 22:54:04 UTC


;
;

;
;
; 

; external perimeters extrusion width = 0.40mm
; perimeters extrusion width = 0.40mm
; infill extrusion width = 0.40mm
; solid infill extrusion width = 0.40mm
; top infill extrusion width = 0.40mm
; first layer extrusion width = 0.60mm

M73 P0 R57
M107
;TYPE:Custom
M104 S240       ; Heat up nozzle
M140 S70   ; Heat up bed
G28                                   ; Home all axis
M109 S240       ; Wait nozzle heating up
M190 S70   ; Wait bed heating up
G21 ; set units to millimeters
G90 ; use absolute coordinates
M83 ; use relative distances for extrusion
; Filament gcode
;LAYER_CHANGE
;Z:0.3
;HEIGHT:0.3
G1 Z0.300 F7800.000
G1 E-1.00000 F1800.000
G1 X82.828 Y44.677 F7800.000
G1 E1.00000 F2400.000
;TYPE:Skirt
;WIDTH:0.6
G1 F1200.000
G1 X83.356 Y43.901 E0.06273
G1 X83.985 Y43.212 E0.06231
G1 X84.710 Y42.615 E0.06273
G1 X85.512 Y42.127 E0.06273
G1 X86.375 Y41.757 E0.06273
G1 X87.282 Y41.514 E0.06273
G1 X88.215 Y41.401 E0.06273
G1 X166.468 Y41.393 E5.22778
G1 X167.960 Y41.565 E0.10032
G1 X169.380 Y42.073 E0.10075
G1 X170.648 Y42.889 E0.10075
G1 X171.698 Y43.971 E0.10075
G1 X172.248 Y44.810 E0.06696
G1 X172.661 Y45.716 E0.06654
G1 X174.382 Y50.498 E0.33951
G1 X174.679 Y52.066 E0.10664
G1 X174.691 Y127.665 E5.05041
G1 X174.606 Y128.568 E0.06062
G1 X174.398 Y129.452 E0.06062
G1 X172.586 Y134.480 E0.35707
G1 X172.010 Y135.588 E0.08345
G1 X171.231 Y136.573 E0.08387
G1 X142.124 Y166.624 E2.79489
G1 X141.466 Y167.211 E0.05892
G1 X140.741 Y167.703 E0.05850
G1 X139.981 Y168.084 E0.05681
G1 X139.184 Y168.363 E0.05638
G1 X138.352 Y168.539 E0.05681
G1 X137.511 Y168.606 E0.05638
G1 X117.449 Y168.605 E1.34023
G1 X116.258 Y168.470 E0.08007
G1 X115.111 Y168.122 E0.08007
G1 X113.935 Y167.500 E0.08894
G1 X112.906 Y166.654 E0.08894
G1 X83.598 Y136.387 E2.81463
G1 X82.957 Y135.536 E0.07119
G1 X82.461 Y134.593 E0.07119
G1 X80.531 Y129.204 E0.38241
G1 X80.365 Y128.370 E0.05681
G1 X80.307 Y127.521 E0.05681
G1 X80.309 Y52.354 E5.02158
M73 P0 R56
G1 X80.392 Y51.444 E0.06104
G1 X80.600 Y50.554 E0.06104
G1 X82.414 Y45.520 E0.35749
G1 X82.801 Y44.731 E0.05872
G1 X83.281 Y44.967 F7800.000
G1 F1200.000
G1 X83.784 Y44.224 E0.05993
G1 X84.368 Y43.588 E0.05770
G1 X85.036 Y43.041 E0.05770
G1 X85.775 Y42.594 E0.05770
G1 X86.570 Y42.257 E0.05770
G1 X87.405 Y42.035 E0.05770
G1 X88.263 Y41.935 E0.05770
G1 X166.468 Y41.929 E5.22454
G1 X167.862 Y42.092 E0.09373
G1 X169.175 Y42.569 E0.09333
G1 X170.345 Y43.332 E0.09333
G1 X171.312 Y44.348 E0.09373
G1 X171.799 Y45.106 E0.06013
G1 X172.166 Y45.921 E0.05973
G1 X173.871 Y50.658 E0.33636
G1 X174.146 Y52.132 E0.10019
G1 X174.155 Y127.652 E5.04513
G1 X174.076 Y128.488 E0.05608
G1 X173.881 Y129.310 E0.05648
G1 X172.086 Y134.288 E0.35352
G1 X171.557 Y135.301 E0.07634
G1 X170.844 Y136.202 E0.07675
G1 X141.744 Y166.246 E2.79420
G1 X141.146 Y166.781 E0.05364
G1 X140.477 Y167.236 E0.05405
G1 X139.776 Y167.589 E0.05242
G1 X139.041 Y167.846 E0.05202
G1 X138.280 Y168.008 E0.05202
G1 X137.497 Y168.071 E0.05242
G1 X117.474 Y168.070 E1.33770
G1 X116.374 Y167.947 E0.07391
G1 X115.309 Y167.624 E0.07432
G1 X114.225 Y167.050 E0.08201
G1 X113.282 Y166.273 E0.08160
G1 X83.999 Y136.032 E2.81219
M73 P1 R56
G1 X83.407 Y135.245 E0.06581
G1 X82.947 Y134.367 E0.06621
G1 X81.047 Y129.061 E0.37647
G1 X80.895 Y128.292 E0.05242
G1 X80.843 Y127.515 E0.05202
G1 X80.844 Y52.366 E5.02034
G1 X80.922 Y51.524 E0.05648
G1 X81.117 Y50.695 E0.05689
G1 X82.914 Y45.712 E0.35392
G1 X83.255 Y45.021 E0.05144
G1 X83.734 Y45.258 F7800.000
G1 F1200.000
G1 X84.213 Y44.545 E0.05737
G1 X84.748 Y43.965 E0.05277
G1 X85.361 Y43.467 E0.05277
G1 X86.039 Y43.061 E0.05277
G1 X86.762 Y42.757 E0.05238
G1 X87.526 Y42.558 E0.05277
G1 X88.311 Y42.469 E0.05277
G1 X166.468 Y42.464 E5.22132
G1 X167.752 Y42.617 E0.08640
G1 X168.966 Y43.063 E0.08640
G1 X170.043 Y43.779 E0.08640
G1 X170.925 Y44.725 E0.08640
G1 X171.598 Y45.936 E0.09256
G1 X173.295 Y50.626 E0.33323
G1 X173.511 Y51.398 E0.05354
G1 X173.613 Y52.193 E0.05354
G1 X173.620 Y127.634 E5.03984
G1 X173.547 Y128.408 E0.05199
G1 X173.365 Y129.165 E0.05199
G1 X171.585 Y134.096 E0.35021
G1 X171.104 Y135.016 E0.06941
G1 X170.454 Y135.835 E0.06979
G1 X141.365 Y165.868 E2.79322
G1 X140.215 Y166.769 E0.09757
G1 X138.898 Y167.330 E0.09565
G1 X137.481 Y167.535 E0.09565
G1 X117.491 Y167.535 E1.33548
G1 X116.475 Y167.421 E0.06825
G1 X115.498 Y167.123 E0.06825
G1 X114.520 Y166.603 E0.07404
G1 X113.660 Y165.894 E0.07443
G1 X84.400 Y135.677 E2.81000
G1 X83.855 Y134.953 E0.06051
G1 X83.434 Y134.144 E0.06090
G1 X81.563 Y128.919 E0.37079
G1 X81.378 Y127.511 E0.09488
G1 X81.380 Y52.378 E5.01927
G1 X81.452 Y51.603 E0.05199
G1 X81.633 Y50.840 E0.05238
G1 X83.415 Y45.904 E0.35059
G1 X83.708 Y45.312 E0.04411
; printing object FB4S_ChainLock.STL id:0 copy 18
G1 E-1.00000 F1800.000
G1 X118.967 Y139.371 F7800.000
G1 E1.00000 F2400.000
;TYPE:Perimeter
G1 F1200.000
G1 X121.505 Y139.371 E0.16957
G1 X121.505 Y143.871 E0.30062
G1 X123.129 Y143.871 E0.10849
G1 X123.129 Y156.129 E0.81887
G1 X121.505 Y156.129 E0.10849
G1 X121.505 Y160.629 E0.30062
G1 X118.967 Y160.629 E0.16957
G1 X118.967 Y156.129 E0.30062
G1 X117.343 Y156.129 E0.10849
G1 X117.343 Y143.871 E0.81887
G1 X118.967 Y143.871 E0.10849
G1 X118.967 Y139.431 E0.29662
G1 E-1.00000 F1800.000
G1 X122.040 Y143.336 F7800.000
G1 E1.00000 F2400.000
G1 F1200.000
G1 X123.664 Y143.336 E0.10849
G1 X123.664 Y156.664 E0.89043
G1 X122.040 Y156.664 E0.10849
G1 X122.040 Y161.164 E0.30062
G1 X118.431 Y161.164 E0.24113
G1 X118.431 Y156.664 E0.30062
G1 X116.807 Y156.664 E0.10849
G1 X116.807 Y143.336 E0.89043
G1 X118.431 Y143.336 E0.10849
G1 X118.431 Y138.836 E0.30062
G1 X122.040 Y138.836 E0.24113
G1 X122.040 Y143.276 E0.29662
G1 X122.576 Y142.800 F7800.000
;TYPE:External perimeter
G1 F1200.000
G1 X124.200 Y142.800 E0.10849
G1 X124.200 Y157.200 E0.96200
G1 X122.576 Y157.200 E0.10849
G1 X122.576 Y161.700 E0.30062
G1 X117.895 Y161.700 E0.31270
G1 X117.895 Y157.200 E0.30062
G1 X116.271 Y157.200 E0.10849
G1 X116.271 Y142.800 E0.96200
M73 P2 R56
G1 X117.895 Y142.800 E0.10849
G1 X117.895 Y138.300 E0.30062
G1 X122.576 Y138.300 E0.31270
G1 X122.576 Y142.740 E0.29662
G1 X122.682 Y143.186 F7800.000
G1 E-1.00000 F1800.000
G1 X121.344 Y140.641 F7800.000
G1 E1.00000 F2400.000
;TYPE:Solid infill
;WIDTH:0.612628
G1 F1200.000
G1 X120.476 Y139.773 E0.08399
G1 X119.700 Y139.773 E0.05302
G1 X121.103 Y141.176 E0.13566
G1 X121.103 Y141.951 E0.05302
G1 X119.368 Y140.216 E0.16776
G1 X119.368 Y140.992 E0.05302
G1 X121.344 Y142.967 E0.19107
G1 X122.409 Y144.032 F7800.000
G1 F1200.000
G1 X122.727 Y144.350 E0.03080
G1 X122.727 Y145.126 E0.05302
G1 X121.874 Y144.273 E0.08247
G1 X121.103 Y144.273 E0.05273
G1 X121.103 Y143.502 E0.05273
G1 X119.368 Y141.767 E0.16776
G1 X119.368 Y142.542 E0.05302
G1 X122.727 Y145.901 E0.32481
G1 X122.727 Y146.676 E0.05302
G1 X119.368 Y143.318 E0.32481
G1 X119.368 Y144.093 E0.05302
G1 X122.727 Y147.452 E0.32481
G1 X122.727 Y148.227 E0.05302
G1 X118.773 Y144.273 E0.38238
G1 X117.998 Y144.273 E0.05302
G1 X122.727 Y149.002 E0.45736
G1 X122.727 Y149.778 E0.05302
G1 X117.744 Y144.795 E0.48186
G1 X117.744 Y145.570 E0.05302
G1 X122.727 Y150.553 E0.48186
G1 X122.727 Y151.328 E0.05302
G1 X117.744 Y146.346 E0.48186
G1 X117.744 Y147.121 E0.05302
G1 X122.727 Y152.104 E0.48186
G1 X122.727 Y152.879 E0.05302
G1 X117.744 Y147.896 E0.48186
G1 X117.744 Y148.672 E0.05302
G1 X122.727 Y153.654 E0.48186
G1 X122.727 Y154.430 E0.05302
G1 X117.744 Y149.447 E0.48186
G1 X117.744 Y150.222 E0.05302
G1 X122.727 Y155.205 E0.48186
G1 X122.727 Y155.727 E0.03569
G1 X122.474 Y155.727 E0.01733
G1 X117.744 Y150.998 E0.45735
G1 X117.744 Y151.773 E0.05302
G1 X121.698 Y155.727 E0.38237
G1 X121.103 Y155.727 E0.04070
G1 X121.103 Y155.907 E0.01232
G1 X117.744 Y152.548 E0.32481
G1 X117.744 Y153.324 E0.05302
G1 X121.103 Y156.683 E0.32481
G1 X121.103 Y157.458 E0.05302
G1 X117.744 Y154.099 E0.32481
G1 X117.744 Y154.874 E0.05302
G1 X118.597 Y155.727 E0.08246
G1 X119.368 Y155.727 E0.05274
G1 X119.368 Y156.498 E0.05274
G1 X121.103 Y158.233 E0.16776
G1 X121.103 Y159.009 E0.05302
G1 X119.368 Y157.274 E0.16776
G1 X119.368 Y158.049 E0.05302
G1 X121.103 Y159.784 E0.16776
G1 X121.103 Y160.227 E0.03031
G1 X120.771 Y160.227 E0.02271
G1 X119.368 Y158.824 E0.13565
G1 X119.368 Y159.600 E0.05302
G1 X120.237 Y160.468 E0.08398
G1 E-1.00000 F1800.000
G1 X118.063 Y155.968 F7800.000
G1 E1.00000 F2400.000
G1 F1200.000
G1 X117.503 Y155.409 E0.05410
; stop printing object FB4S_ChainLock.STL id:0 copy 18
; printing object FB4S_ChainLock.STL id:0 copy 19
G1 E-1.00000 F1800.000
G1 X136.033 Y143.871 F7800.000
G1 E1.00000 F2400.000
;TYPE:Perimeter
;WIDTH:0.6
G1 F1200.000
G1 X137.657 Y143.871 E0.10849
G1 X137.657 Y156.129 E0.81887
M73 P2 R55
G1 X136.033 Y156.129 E0.10849
G1 X136.033 Y160.629 E0.30062
G1 X133.495 Y160.629 E0.16957
G1 X133.495 Y156.129 E0.30062
G1 X131.871 Y156.129 E0.10849
G1 X131.871 Y143.871 E0.81887
G1 X133.495 Y143.871 E0.10849
G1 X133.495 Y139.371 E0.30062
G1 X136.033 Y139.371 E0.16957
G1 X136.033 Y143.811 E0.29662
G1 X136.569 Y143.336 F7800.000
G1 F1200.000
G1 X138.193 Y143.336 E0.10849
G1 X138.193 Y156.664 E0.89043
G1 X136.569 Y156.664 E0.10849
G1 X136.569 Y161.164 E0.30062
G1 X132.960 Y161.164 E0.24113
G1 X132.960 Y156.664 E0.30062
G1 X131.336 Y156.664 E0.10849
G1 X131.336 Y143.336 E0.89043
G1 X132.960 Y143.336 E0.10849
G1 X132.960 Y138.836 E0.30062
G1 X136.569 Y138.836 E0.24113
G1 X136.569 Y143.276 E0.29662
G1 X137.105 Y142.800 F7800.000
;TYPE:External perimeter
G1 F1200.000
G1 X138.729 Y142.800 E0.10849
G1 X138.729 Y157.200 E0.96200
G1 X137.105 Y157.200 E0.10849
G1 X137.105 Y161.700 E0.30062
G1 X132.424 Y161.700 E0.31270
G1 X132.424 Y157.200 E0.30062
G1 X130.800 Y157.200 E0.10849
G1 X130.800 Y142.800 E0.96200
G1 X132.424 Y142.800 E0.10849
G1 X132.424 Y138.300 E0.30062
G1 X137.105 Y138.300 E0.31270
G1 X137.105 Y142.740 E0.29662
G1 X137.211 Y143.186 F7800.000
G1 E-1.00000 F1800.000
G1 X135.873 Y140.641 F7800.000
G1 E1.00000 F2400.000
;TYPE:Solid infill
;WIDTH:0.612628
G1 F1200.000
G1 X135.004 Y139.773 E0.08399
G1 X134.229 Y139.773 E0.05302
G1 X135.632 Y141.176 E0.13566
G1 X135.632 Y141.951 E0.05302
G1 X133.897 Y140.216 E0.16776
G1 X133.897 Y140.992 E0.05302
G1 X135.873 Y142.967 E0.19107
G1 X136.937 Y144.032 F7800.000
G1 F1200.000
G1 X137.256 Y144.350 E0.03080
G1 X137.256 Y145.126 E0.05302
G1 X136.403 Y144.273 E0.08247
G1 X135.632 Y144.273 E0.05273
G1 X135.632 Y143.502 E0.05273
G1 X133.897 Y141.767 E0.16776
G1 X133.897 Y142.542 E0.05302
G1 X137.256 Y145.901 E0.32481
G1 X137.256 Y146.676 E0.05302
G1 X133.897 Y143.318 E0.32481
G1 X133.897 Y144.093 E0.05302
G1 X137.256 Y147.452 E0.32481
G1 X137.256 Y148.227 E0.05302
G1 X133.302 Y144.273 E0.38238
G1 X132.526 Y144.273 E0.05302
G1 X137.256 Y149.002 E0.45736
G1 X137.256 Y149.778 E0.05302
G1 X132.273 Y144.795 E0.48186
G1 X132.273 Y145.570 E0.05302
G1 X137.256 Y150.553 E0.48186
G1 X137.256 Y151.328 E0.05302
G1 X132.273 Y146.346 E0.48186
G1 X132.273 Y147.121 E0.05302
G1 X137.256 Y152.104 E0.48186
G1 X137.256 Y152.879 E0.05302
G1 X132.273 Y147.896 E0.48186
G1 X132.273 Y148.672 E0.05302
G1 X137.256 Y153.654 E0.48186
G1 X137.256 Y154.430 E0.05302
G1 X132.273 Y149.447 E0.48186
G1 X132.273 Y150.222 E0.05302
G1 X137.256 Y155.205 E0.48186
G1 X137.256 Y155.727 E0.03569
G1 X137.002 Y155.727 E0.01733
G1 X132.273 Y150.998 E0.45735
G1 X132.273 Y151.773 E0.05302
G1 X136.227 Y155.727 E0.38237
G1 X135.632 Y155.727 E0.04070
G1 X135.632 Y155.907 E0.01232
G1 X132.273 Y152.548 E0.32481
G1 X132.273 Y153.324 E0.05302
G1 X135.632 Y156.683 E0.32481
G1 X135.632 Y157.458 E0.05302
G1 X132.273 Y154.099 E0.32481
G1 X132.273 Y154.874 E0.05302
G1 X133.126 Y155.727 E0.08246
G1 X133.897 Y155.727 E0.05274
G1 X133.897 Y156.498 E0.05274
G1 X135.632 Y158.233 E0.16776
G1 X135.632 Y159.009 E0.05302
G1 X133.897 Y157.274 E0.16776
G1 X133.897 Y158.049 E0.05302
G1 X135.632 Y159.784 E0.16776
G1 X135.632 Y160.227 E0.03031
G1 X135.300 Y160.227 E0.02271
G1 X133.897 Y158.824 E0.13565
G1 X133.897 Y159.600 E0.05302
G1 X134.765 Y160.468 E0.08398
G1 E-1.00000 F1800.000
G1 X132.591 Y155.968 F7800.000
G1 E1.00000 F2400.000
G1 F1200.000
G1 X132.032 Y155.409 E0.05410
; stop printing object FB4S_ChainLock.STL id:0 copy 19
; printing object FB4S_ChainLock.STL id:0 copy 16
G1 E-1.00000 F1800.000
G1 X162.553 Y130.629 F7800.000
G1 E1.00000 F2400.000
;TYPE:Perimeter
;WIDTH:0.6
G1 F1200.000
G1 X162.553 Y126.129 E0.30062
G1 X160.929 Y126.129 E0.10849
G1 X160.929 Y113.871 E0.81887
G1 X162.553 Y113.871 E0.10849
G1 X162.553 Y109.371 E0.30062
G1 X165.091 Y109.371 E0.16957
G1 X165.091 Y113.871 E0.30062
G1 X166.715 Y113.871 E0.10849
G1 X166.715 Y126.129 E0.81887
G1 X165.091 Y126.129 E0.10849
G1 X165.091 Y130.629 E0.30062
G1 X162.613 Y130.629 E0.16556
G1 E-1.00000 F1800.000
G1 X165.626 Y113.336 F7800.000
G1 E1.00000 F2400.000
G1 F1200.000
G1 X167.250 Y113.336 E0.10849
G1 X167.250 Y126.664 E0.89043
G1 X165.626 Y126.664 E0.10849
G1 X165.626 Y131.164 E0.30062
G1 X162.017 Y131.164 E0.24113
G1 X162.017 Y126.664 E0.30062
G1 X160.393 Y126.664 E0.10849
G1 X160.393 Y113.336 E0.89043
G1 X162.017 Y113.336 E0.10849
G1 X162.017 Y108.836 E0.30062
G1 X165.626 Y108.836 E0.24113
G1 X165.626 Y113.276 E0.29662
G1 X166.162 Y112.800 F7800.000
;TYPE:External perimeter
G1 F1200.000
G1 X167.786 Y112.800 E0.10849
G1 X167.786 Y127.200 E0.96200
M73 P3 R55
G1 X166.162 Y127.200 E0.10849
G1 X166.162 Y131.700 E0.30062
G1 X161.481 Y131.700 E0.31270
G1 X161.481 Y127.200 E0.30062
G1 X159.857 Y127.200 E0.10849
G1 X159.857 Y112.800 E0.96200
G1 X161.481 Y112.800 E0.10849
G1 X161.481 Y108.300 E0.30062
G1 X166.162 Y108.300 E0.31270
G1 X166.162 Y112.740 E0.29662
G1 X166.268 Y113.186 F7800.000
G1 E-1.00000 F1800.000
G1 X164.930 Y110.641 F7800.000
G1 E1.00000 F2400.000
;TYPE:Solid infill
;WIDTH:0.612628
G1 F1200.000
G1 X164.062 Y109.773 E0.08399
G1 X163.286 Y109.773 E0.05302
G1 X164.689 Y111.176 E0.13566
G1 X164.689 Y111.951 E0.05302
G1 X162.954 Y110.216 E0.16776
G1 X162.954 Y110.992 E0.05302
G1 X164.930 Y112.967 E0.19107
G1 X165.995 Y114.032 F7800.000
G1 F1200.000
G1 X166.313 Y114.350 E0.03080
G1 X166.313 Y115.126 E0.05302
G1 X165.460 Y114.273 E0.08247
G1 X164.689 Y114.273 E0.05273
G1 X164.689 Y113.502 E0.05273
G1 X162.954 Y111.767 E0.16776
G1 X162.954 Y112.542 E0.05302
G1 X166.313 Y115.901 E0.32481
G1 X166.313 Y116.676 E0.05302
G1 X162.954 Y113.318 E0.32481
G1 X162.954 Y114.093 E0.05302
G1 X166.313 Y117.452 E0.32481
G1 X166.313 Y118.227 E0.05302
G1 X162.359 Y114.273 E0.38238
G1 X161.584 Y114.273 E0.05302
G1 X166.313 Y119.002 E0.45736
G1 X166.313 Y119.778 E0.05302
G1 X161.330 Y114.795 E0.48186
G1 X161.330 Y115.570 E0.05302
G1 X166.313 Y120.553 E0.48186
G1 X166.313 Y121.328 E0.05302
G1 X161.330 Y116.346 E0.48186
G1 X161.330 Y117.121 E0.05302
G1 X166.313 Y122.104 E0.48186
G1 X166.313 Y122.879 E0.05302
G1 X161.330 Y117.896 E0.48186
G1 X161.330 Y118.672 E0.05302
G1 X166.313 Y123.654 E0.48186
G1 X166.313 Y124.430 E0.05302
G1 X161.330 Y119.447 E0.48186
G1 X161.330 Y120.222 E0.05302
G1 X166.313 Y125.205 E0.48186
G1 X166.313 Y125.727 E0.03569
G1 X166.060 Y125.727 E0.01733
G1 X161.330 Y120.998 E0.45735
G1 X161.330 Y121.773 E0.05302
G1 X165.284 Y125.727 E0.38237
G1 X164.689 Y125.727 E0.04070
G1 X164.689 Y125.907 E0.01232
G1 X161.330 Y122.548 E0.32481
G1 X161.330 Y123.324 E0.05302
G1 X164.689 Y126.683 E0.32481
G1 X164.689 Y127.458 E0.05302
G1 X161.330 Y124.099 E0.32481
G1 X161.330 Y124.874 E0.05302
G1 X162.183 Y125.727 E0.08246
G1 X162.954 Y125.727 E0.05274
G1 X162.954 Y126.498 E0.05274
G1 X164.689 Y128.233 E0.16776
G1 X164.689 Y129.009 E0.05302
G1 X162.954 Y127.274 E0.16776
G1 X162.954 Y128.049 E0.05302
G1 X164.689 Y129.784 E0.16776
G1 X164.689 Y130.227 E0.03031
G1 X164.357 Y130.227 E0.02271
G1 X162.954 Y128.824 E0.13565
G1 X162.954 Y129.600 E0.05302
G1 X163.823 Y130.468 E0.08398
G1 E-1.00000 F1800.000
G1 X161.649 Y125.968 F7800.000
G1 E1.00000 F2400.000
G1 F1200.000
G1 X161.089 Y125.409 E0.05410
; stop printing object FB4S_ChainLock.STL id:0 copy 16
; printing object FB4S_ChainLock.STL id:0 copy 13
G1 E-1.00000 F1800.000
